src/normal/envelope.svg

<!-- Generated by IcoMoon.io -->
<svg version="1.1" xmlns="http://www.w3.org/2000/svg" width="24" height="24" viewBox="0 0 24 24">
<title>envelope</title>
<path d="M1 6v13h21v-13h-21zM3 17v-7.866l15.544 7.866h-15.544zM20 15.949l-6.378-3.407 6.378-3.408v6.815zM12.088 11.408l-6.706-3.408h13.195l-6.489 3.408z"></path>
</svg>

<svg xmlns="http://www.w3.org/2000/svg" width="24" height="24"><path d="M1 6v13h21V6H1zm2 11V9.134L18.544 17H3zm17-1.051l-6.378-3.407L20 9.134v6.815zm-7.912-4.541L5.382 8h13.195l-6.489 3.408z"/></svg>
